X: 31532
T: Paddy's Return From Glasgow
R: jig
M: 6/8
K: Amajor
|:A2c BAE|Ace f2e|fga ece|fec BAE|
ABc BAE|Ace f2e|fga ecA|1 GAB A2E:|2 GAB Ace||
aAA gAA|fAA eAA|fga ece|fec B2A|
aAA gAA|f2f ece|fga ecA|GAB Ace|
agf gfe|fed ecA|fga ece|fec BAE|
ABc BAE|Ace f2e|fga ecA|GAB A3||

